X: 1
T: Brid Harper's
M: 6/8
L: 1/8
R: jig
K: Emin
|:F|GEF G2A|B2e dBd|edB AGA|BGE AFD|
GEF G2A|B2e dBd|edB AGA|BGE E2:|
|:f|~g3 fed|~e3 dBA|~G3 AGA|BGE EGE|
DB,D GAc|BdB g2d|edB AGA|BGE E2:|
